epam-assets/icon-sources/18/fav & rates-star-outline.svg

<svg width="18" height="18" viewBox="0 0 18 18" fill="none" xmlns="http://www.w3.org/2000/svg">
<g id="18/fav &#38; rates-star-outline">
<path id="icon" d="M6.6375 13.6188L9 12.1938L11.3625 13.6375L10.7437 10.9375L12.825 9.1375L10.0875 8.89375L9 6.34375L7.9125 8.875L5.175 9.11875L7.25625 10.9375L6.6375 13.6188ZM4.36875 16.75L5.5875 11.4813L1.5 7.9375L6.9 7.46875L9 2.5L11.1 7.46875L16.5 7.9375L12.4125 11.4813L13.6312 16.75L9 13.9562L4.36875 16.75Z" fill="#6C6F80"/>
</g>
</svg>

<svg xmlns="http://www.w3.org/2000/svg" width="18" height="18" fill="none" viewBox="0 0 18 18">
  <path fill="#6C6F80" d="M6.638 13.619 9 12.194l2.363 1.443-.62-2.7 2.082-1.8-2.737-.243L9 6.344 7.912 8.875l-2.737.244 2.081 1.819-.619 2.68Zm-2.27 3.131 1.22-5.269L1.5 7.938l5.4-.47L9 2.5l2.1 4.969 5.4.468-4.088 3.544 1.22 5.269L9 13.956 4.369 16.75Z"/>
</svg>
